X:120
T: Wurzgaertelein
N: A0141
O: Europa, Mitteleuropa, Deutschland
N: Forster V. 1556 No. 17.
R: Romanze, Ballade, Lied
M: 4/2
L: 1/4
K: F
F4 | F4F4 | G4G4 | A4A4 | A8 | z4
A4 | c4c4 | A4G4 | A6GF | E8
z2F2A2B2 | c4A4 | c3BA2G2 | A2GF | E4
A4 | G4F4 | E4C4 | F3GA2GF | G6B2 | A3GF2E2 | F8

